X:104
T:Recovery. MBe.104, The
S:Matthew Betham MS, Towcett Cumbria, 1815
O:England;Cumbria;Towcett
Z:VMP – Hugh Taylor, 2012
M:2/4
L:1/8
Q:1/4=100
R:.Reel
N:There is no key signature, but I assume D as the A part ends on D, and D is the usual key for this tune.
N:The page is torn and the title and music are incomplete.
K:D
Ad Ad|e/d/e/f/ e2|agec|d/c/d/e/ d2|\
Ad Ad|e/d/e/f/ e2|agec|d2 d2:|\
agec|d/c/d/e/”>page torn”:
d/c/d/e/ dA|GG G/F/E/F/|D2D2:|\
|:ff/f/ ff|f3g|fedc “^sic”d/c/d/e/|ee/e/ ee|\
e3f|”^sic”edcB Aa|agec”>page torn”:

